X: 39109
T: Sweeper's Tune, The
R: waltz
M: 3/4
K: Bminor
d- de|:fd fB df|a2 fd fd|ec ed cB|AF Ac de|
fe dB df|a2 fd fd|ec ed cB|1 B4 fg:|2 B4 de||
|:fd AA df|ed cc dc|Bc dc de|de ff ed|
fd fA df|ed cc dc|Bc ef ed|1 B4 de:|2 B2-B2-B2||

